X:2
T:Nova Scotia
M:2/4
L:1/8
B:Thompson's Compleat Collection of 200 Favourite Country Dances, vol. 1 (London, 1757)
Z:Transcribed and edited by Fynnian Titford-Mock, 2007
Z:abc's:AK/Fiddler's Companion
K:Gmin
d>ba>g|^f/g/a g2|cedc|BA G2|dbag|^f/g/a g2|Bc {Bc}"tr"c2|d4:|
|:Bbag|fdcB|Agfe|dBA^F|G B2 A/G/|Aedc|BAG^F|G4:|

